src/gen3-ui-component/images/icons/undefined.svg

<?xml version="1.0" encoding="UTF-8"?>
<svg width="12px" height="3px" viewBox="0 0 12 3" version="1.1" xmlns="http://www.w3.org/2000/svg" xmlns:xlink="http://www.w3.org/1999/xlink">
    <!-- Generator: Sketch 52.3 (67297) - http://www.bohemiancoding.com/sketch -->
    <title>Group-46</title>
    <desc>Created with Sketch.</desc>
    <g id="Page-1" stroke="none" stroke-width="1" fill="none" fill-rule="evenodd">
        <g id="undefined" fill="#FFFFFF">
            <g id="Group-46" transform="translate(-0.000000, 0.500000)">
                <rect id="Rectangle-3" x="0" y="0" width="5" height="2" rx="0.5"></rect>
                <path d="M7.5,0 L11.5,0 C11.7761424,-5.07265313e-17 12,0.223857625 12,0.5 L12,1.5 C12,1.77614237 11.7761424,2 11.5,2 L7.5,2 C7.22385763,2 7,1.77614237 7,1.5 L7,0.5 C7,0.223857625 7.22385763,5.07265313e-17 7.5,0 Z" id="Rectangle-3"></path>
            </g>
        </g>
    </g>
</svg>

<svg width="12" height="3" xmlns="http://www.w3.org/2000/svg"><g transform="translate(0 .5)" fill="#FFF" fill-rule="evenodd"><rect width="5" height="2" rx=".5"/><path d="M7.5 0h4a.5.5 0 0 1 .5.5v1a.5.5 0 0 1-.5.5h-4a.5.5 0 0 1-.5-.5v-1a.5.5 0 0 1 .5-.5Z"/></g></svg>
